X: 300
T: A Night To Remember
R: jig
M: 6/8
K: Gmajor
D|:DGA B2c|dgf g2a|gdc Bcd|cAG FDC|
DGA B2c|dgf g2a|gdc Bcd|1 cAF G3:|2 cAF GBd||
|:~g3 bag|fed efg|dBG c2A|dBG AFD|
[1 gfg bag|fed efg|dBG c2A|dBG GB/c/d:|
[2 DGA B2c|dgf g2a|gdc Bcd|cAF G2||

